!!! OTL: Nao\,Yuan/,Xiao- (Lighting Festival)
!!! YEC: Copyright 2001, Chia-wei Lee
!! FOr Voice Only
!! (Happily)
**kern	**silbe
*clefG2	*LXhinhua
*C:	*ping-ying
*M2/4	*
=7	=7
(8g	Zheng-
8e)	|
(8.g	Yuie\
16gg)	|
=8	=8
(8.ee	Sh/
16dd)	|
(8cc	Wu^
8dd)	|
=9	=9
4ee	Nao\
(16a	Yuan/
16cc	|
16a	|
16g)	|
=10	=10
4e	Xiao
4r	.
=11	=11
8g	Wo^
8e	He/
8.g	Lien/
16gg	Cheng/
=12	=12
8.ee	Ge-
16dd	Ge-
8cc	Xiang-
8dd	Sui/
=13	=13
4ee	Jie-
(16a	Shang\
16cc	|
16a	|
16g)	|
=14	=14
4e	Pao^
4r	.
*-	*-
